X:5
%%staffsep .8in
%%staffwidth 750
T:荷塘月色 (Moonlight over the Lotus Pond)
T:(Hulusi in F)
C:Composed by ZHANG Chao
C:Arranged by LUO Zijun
L:1/8
M:4/4
Q:1/4=98
%%barnumbers 0
%%measurenb 0
V:5 clef=treble
%%jianpu 1
%%MIDI program 5
K:Ebmaj
%%visualtranspose -10_of_semitones
G3B Bz Bz | G8 | B3 F Bz Bz | F2 z B/2G/2 F2 B2 |
G3B Bz cz | c4 cz Bz | B3 F Bz Bz | B4 z c/2B/2GF ||
Bz Bz Bz Gz | cz Bz cz cz | cz Fz Bz Bz | Bz Bz Bz BB |
Bz Bz Bz Bz | cz Bz cz cz | cz Fz Bz Bz | FccF Bz z2 |
|: Bz Bz Bz Gz | cz Bz cz cz | cz Fz Bz Bz | BccB cz z2 | 
Bz Bz Bz Bz | cz Bz cz BB | cz Fz Bz Bz | cz cz Bz Bz ||
B B2 B B2 B2 | cBGF Bz Bz | c2cB GF cz | Bz Fz Bz Bz |
G B2 B B2 B2 | cBGF Bz Bz | cz cz Fz Gz | B8 ||
G3B Bz Bz | G8 | B3 F Bz Bz | F2 z B/2G/2 F2 B2 | 
G3B Bz cz | c4 cz Bz | B3 F Bz Bz |1 B4 z c/2B/2GF :|2 B8 || G8 |]

